packages/ui/src/images/pref-open-true.svg

<?xml version="1.0" encoding="UTF-8" standalone="no"?>
<!-- Created with Inkscape (http://www.inkscape.org/) -->

<svg
   xmlns:dc="http://purl.org/dc/elements/1.1/"
   xmlns:cc="http://creativecommons.org/ns#"
   xmlns:rdf="http://www.w3.org/1999/02/22-rdf-syntax-ns#"
   xmlns:svg="http://www.w3.org/2000/svg"
   xmlns="http://www.w3.org/2000/svg"
   xmlns:sodipodi="http://sodipodi.sourceforge.net/DTD/sodipodi-0.dtd"
   xmlns:inkscape="http://www.inkscape.org/namespaces/inkscape"
   width="200"
   height="200"
   id="svg3087"
   version="1.1"
   inkscape:version="0.48.3.1 r9886"
   sodipodi:docname="pref-open.svg"
   inkscape:export-filename="/home/heydon/gbptm-ui/public/images/pref-open.png"
   inkscape:export-xdpi="90"
   inkscape:export-ydpi="90"
   viewBox="0 0 200 200">
  <defs
     id="defs3089" />
  <sodipodi:namedview
     id="base"
     pagecolor="#ffffff"
     bordercolor="#666666"
     borderopacity="1.0"
     inkscape:pageopacity="0.0"
     inkscape:pageshadow="2"
     inkscape:zoom="1.4"
     inkscape:cx="127.32134"
     inkscape:cy="143.76918"
     inkscape:document-units="px"
     inkscape:current-layer="layer1"
     showgrid="true"
     inkscape:window-width="1316"
     inkscape:window-height="744"
     inkscape:window-x="50"
     inkscape:window-y="24"
     inkscape:window-maximized="1">
    <inkscape:grid
       type="xygrid"
       id="grid4247"
       empspacing="5"
       visible="true"
       enabled="true"
       snapvisiblegridlinesonly="true" />
  </sodipodi:namedview>
  <metadata
     id="metadata3092">
    <rdf:RDF>
      <cc:Work
         rdf:about="">
        <dc:format>image/svg+xml</dc:format>
        <dc:type
           rdf:resource="http://purl.org/dc/dcmitype/StillImage" />
        <dc:title></dc:title>
      </cc:Work>
    </rdf:RDF>
  </metadata>
  <g
     inkscape:label="Layer 1"
     inkscape:groupmode="layer"
     id="layer1"
     transform="translate(0,-852.36218)">
    <path
       style="fill:none;stroke:#afe9af;stroke-width:11.20259189999999982;stroke-linecap:round;stroke-linejoin:round;stroke-miterlimit:4;stroke-opacity:1;stroke-dasharray:none"
       d="m 42.216732,1032.3622 0,-154.26659 115.699878,0 0,154.26659"
       id="path4249"
       inkscape:connector-curvature="0"
       sodipodi:nodetypes="cccc" />
    <path
       style="font-size:medium;font-style:normal;font-variant:normal;font-weight:normal;font-stretch:normal;text-indent:0;text-align:start;text-decoration:none;line-height:normal;letter-spacing:normal;word-spacing:normal;text-transform:none;direction:ltr;block-progression:tb;writing-mode:lr-tb;text-anchor:start;baseline-shift:baseline;color:#000000;fill:#afe9af;fill-opacity:1;fill-rule:nonzero;stroke:none;stroke-width:7.07054806000000013;marker:none;visibility:visible;display:inline;overflow:visible;enable-background:accumulate;font-family:Sans;-inkscape-font-specification:Sans"
       d="M 70.25 40.6875 C 68.401668 40.6895 66.721037 42.37042 66.71875 44.21875 L 66.71875 146.75 C 66.71255 148.2011 67.696362 149.60465 69.0625 150.09375 L 139.78125 174.84375 C 140.84142 175.20905 142.08711 175.05745 143 174.40625 C 143.91289 173.75505 144.46909 172.6214 144.46875 171.5 L 144.46875 44.21875 C 144.46675 42.37042 142.78583 40.68979 140.9375 40.6875 L 70.25 40.6875 z M 81.15625 85.90625 C 84.351214 85.90625 86.96875 89.365048 86.96875 93.625 C 86.96875 97.884952 84.351214 101.3125 81.15625 101.3125 C 77.961286 101.3125 75.375 97.884952 75.375 93.625 C 75.375 89.365048 77.961286 85.90625 81.15625 85.90625 z "
       transform="translate(0,852.36218)"
       id="path4251" />
  </g>
</svg>

<svg xmlns="http://www.w3.org/2000/svg" width="200" height="200" viewBox="0 0 200 200"><path d="M42.217 180V25.733h115.7V180" fill="none" stroke="#afe9af" stroke-width="11.203" stroke-linecap="round" stroke-linejoin="round"/><path style="text-indent:0;text-align:start;line-height:normal;text-transform:none;block-progression:tb;marker:none;-inkscape-font-specification:Sans" d="M70.25 40.688c-1.848.002-3.529 1.682-3.531 3.53V146.75c-.006 1.451.977 2.855 2.344 3.344l70.718 24.75c1.06.365 2.306.213 3.219-.438.913-.65 1.47-1.785 1.469-2.906V44.219c-.002-1.849-1.683-3.53-3.531-3.532H70.25zm10.906 45.218c3.195 0 5.813 3.459 5.813 7.719s-2.618 7.688-5.813 7.688-5.781-3.428-5.781-7.688 2.586-7.719 5.781-7.719z" font-weight="400" color="#000" fill="#afe9af" overflow="visible" font-family="Sans"/></svg>
